X:1
T:Title
%%score { ( 1 3 ) | 2 }
L:1/8
M:2/4
K:Eb
V:1 treble nm="Grand Piano"
V:3 treble 
V:2 bass 
V:1
 z2[Q:1/4=76] [GB][GB] | [Ge]>[GB] [EG][FA] | [GB]2 [GB][Gc] | [GB]>G EF | G2 [GB][GB] | %5
 [GB]>[FA] [DF][FA] | [Ad] [Ad]2 [DAc] | [EAc]4 | [EGB]2 [DAB][AB] | [Ge]>[GB] [EG][FA] | %10
 [GB]2 [GB][Gc] | [GB]>G EF | G2 [GB][GB] | [GB]>[FA] [DF][FA] | [Ad] [Ad]2 B | [Ge]4 | %16
[M:1/4] [Ge]2 | [Ge][Ge] |[M:2/4] e>d cd | e2[K:bass][K:treble] z2 | B>A G[FA] |[M:1/4] [GB]2 | %22
 [GB][GB] |[M:2/4] [GB]>[FA] [DF][DFA] |[M:3/8] [FAd] [FAd]2 |[M:1/8] [DAc] |[M:2/4] [Ac]4 | %27
[M:1/4] [GB]2 | [Ge][Ge] |[M:2/4] e>d cd | e2[K:bass][K:treble] z2 | B>A G[FA] |[M:1/4] [GB]2 | %33
 [GB][GB] |[M:2/4] [GB]>[FA] [DF][DFA] |[M:3/8] [FAd] [FAd]2 |[M:1/8] [DAB] |[M:2/4] [Ge]4 | %38
[M:1/4] [Ge]2 |] %39
V:2
 z2 [E,E][E,E] | [E,B,]>[E,E] [E,B,][E,B,] | [E,E]2 [E,E][E,E] | [E,E]>[E,B,E] [G,B,][B,D] | %4
 [E,B,E]2 [E,E][E,B,] | [B,,B,]>[B,,B,] [B,,B,][B,,B,] | [B,,B,] [B,,B,]2 B,, | E,4 | E,2 B,B, | %9
 [E,B,]>[E,E] [E,B,][E,B,] | [E,E]2 [E,E][E,E] | [E,E]>[E,B,E] [G,B,][B,D] | [E,B,E]2 [E,E][E,B,] | %13
 [B,,B,]>[B,,B,] [B,,B,][B,,B,] | [B,,B,] [B,,B,]2 [B,A] | [E,B,]4 |[M:1/4] [E,B,]2 | %17
 [E,B,][E,B,] |[M:2/4][K:treble] [A,CA]>[A,DA] [A,EA][A,=B,A] | .[A,,CA]2 [C,B,][D,A,] | %20
 [E,G,E]>[E,CE] [E,B,E][E,B,] |[M:1/4] [E,E]2 | [E,E][E,B,] |[M:2/4] [B,,B,]>[B,,B,] [B,,B,]B,, | %24
[M:3/8] B,, B,,2 |[M:1/8] B,, |[M:2/4] [E,E]4 |[M:1/4] [E,E]2 | [E,B,][E,B,] | %29
[M:2/4][K:treble] [A,CA]>[A,DA] [A,EA][A,=B,A] | .[A,,CA]2 [C,B,][D,A,] | %31
 [E,G,E]>[E,CE] [E,B,E][E,B,] |[M:1/4] [E,E]2 | [E,E][E,B,] |[M:2/4] [B,,B,]>[B,,B,] [B,,B,]B,, | %35
[M:3/8] B,, B,,2 |[M:1/8] B, |[M:2/4] [E,B,]4 |[M:1/4] [E,B,]2 |] %39
V:3
 x4 | x4 | x4 | x4 | x4 | x4 | x4 | x4 | x4 | x4 | x4 | x4 | x4 | x4 | x4 | x4 |[M:1/4] x2 | x2 | %18
[M:2/4] x4 | z[K:bass] B,,[K:treble] [Ed][Ec] | x4 |[M:1/4] x2 | x2 |[M:2/4] x4 |[M:3/8] x3 | %25
[M:1/8] x |[M:2/4] x4 |[M:1/4] x2 | x2 |[M:2/4] x4 | z[K:bass] B,,[K:treble] [Ed][Ec] | x4 | %32
[M:1/4] x2 | x2 |[M:2/4] x4 |[M:3/8] x3 |[M:1/8] x |[M:2/4] x4 |[M:1/4] x2 |] %39

